assets/src/images/icons/ic_home_full.svg

<svg width="97" height="95" viewBox="0 0 97 95" fill="none" xmlns="http://www.w3.org/2000/svg">
<g filter="url(#filter0_d)">
<path fill-rule="evenodd" clip-rule="evenodd" d="M65.15 59.6H65.7667C66.4478 59.6 67 60.1523 67 60.8334V63.3C67 63.9811 66.4478 64.5334 65.7667 64.5334H31.2333C30.5522 64.5334 30 63.9811 30 63.3V60.8334C30 60.1523 30.5522 59.6 31.2333 59.6H31.85V38.6334H31.4721C31.0753 38.6337 30.7025 38.4434 30.4706 38.1215C30.2385 37.7996 30.1752 37.3859 30.3008 37.0098L32.3562 30.8431C32.5245 30.3391 32.9966 29.9994 33.5281 30H63.4719C64.0037 29.9991 64.4761 30.3388 64.6444 30.8431L66.6998 37.0098C66.8254 37.3862 66.7621 37.7999 66.53 38.1218C66.2978 38.4437 65.9247 38.634 65.5279 38.6334H65.15V59.6ZM63.4719 31.2334H33.5281L31.4727 37.4H65.5279L63.4719 31.2334ZM63.9167 48.5V38.6334H33.0833V48.5H63.9167ZM63.9167 49.7334H33.0833V59.6H44.1833V51.5834C44.1833 51.2428 44.4594 50.9667 44.8 50.9667H52.2C52.5406 50.9667 52.8167 51.2428 52.8167 51.5834V59.6H63.9167V49.7334ZM45.4167 59.6H51.5833V52.2H45.4167V59.6ZM51.5833 60.8334H45.4167V61.45H51.5833V60.8334ZM44.1833 60.8334H31.2333V63.3H44.1833V60.8334ZM51.5833 62.6834H45.4167V63.3H51.5833V62.6834ZM52.8167 63.3H65.7667V60.8334H52.8167V63.3ZM54.6667 47.2667H62.0667C62.4072 47.2667 62.6833 46.9906 62.6833 46.65V40.4834C62.6833 40.1428 62.4072 39.8667 62.0667 39.8667H54.6667C54.3261 39.8667 54.05 40.1428 54.05 40.4834V46.65C54.05 46.9906 54.3261 47.2667 54.6667 47.2667ZM55.2833 44.1834H55.9V46.0334H55.2833V44.1834ZM57.1333 44.1834H57.75V46.0334H57.1333V44.1834ZM58.9833 44.1834H59.6V46.0334H58.9833V44.1834ZM61.45 46.0334H60.8333V44.1834H61.45V46.0334ZM61.45 41.1V42.95H55.2833V41.1H61.45ZM34.9333 50.9666H42.3333C42.6739 50.9666 42.95 51.2427 42.95 51.5833V57.75C42.95 58.0905 42.6739 58.3666 42.3333 58.3666H34.9333C34.5928 58.3666 34.3166 58.0905 34.3166 57.75V51.5833C34.3166 51.2427 34.5928 50.9666 34.9333 50.9666ZM41.7166 54.05V52.2H35.55V54.05H41.7166ZM36.1666 55.2833H35.55V57.1333H36.1666V55.2833ZM38.0166 55.2833H37.4V57.1333H38.0166V55.2833ZM39.8666 55.2833H39.25V57.1333H39.8666V55.2833ZM41.1 57.1333H41.7166V55.2833H41.1V57.1333ZM62.0667 58.3666H54.6667C54.3261 58.3666 54.05 58.0905 54.05 57.75V51.5833C54.05 51.2427 54.3261 50.9666 54.6667 50.9666H62.0667C62.4072 50.9666 62.6833 51.2427 62.6833 51.5833V57.75C62.6833 58.0905 62.4072 58.3666 62.0667 58.3666ZM55.9 55.2833H55.2833V57.1333H55.9V55.2833ZM57.75 55.2833H57.1333V57.1333H57.75V55.2833ZM59.6 55.2833H58.9833V57.1333H59.6V55.2833ZM60.8333 57.1333H61.45V55.2833H60.8333V57.1333ZM61.45 54.05V52.2H55.2833V54.05H61.45ZM52.2 47.2667H44.8C44.4595 47.2667 44.1834 46.9906 44.1834 46.65V40.4834C44.1834 40.1428 44.4595 39.8667 44.8 39.8667H52.2C52.5406 39.8667 52.8167 40.1428 52.8167 40.4834V46.65C52.8167 46.9906 52.5406 47.2667 52.2 47.2667ZM46.0334 44.1834H45.4167V46.0334H46.0334V44.1834ZM47.8834 44.1834H47.2667V46.0334H47.8834V44.1834ZM49.7334 44.1834H49.1167V46.0334H49.7334V44.1834ZM50.9667 46.0334H51.5834V44.1834H50.9667V46.0334ZM51.5834 42.95V41.1H45.4167V42.95H51.5834ZM34.9333 47.2667H42.3333C42.6739 47.2667 42.95 46.9906 42.95 46.65V40.4834C42.95 40.1428 42.6739 39.8667 42.3333 39.8667H34.9333C34.5928 39.8667 34.3166 40.1428 34.3166 40.4834V46.65C34.3166 46.9906 34.5928 47.2667 34.9333 47.2667ZM35.55 44.1834H36.1666V46.0334H35.55V44.1834ZM37.4 44.1834H38.0166V46.0334H37.4V44.1834ZM39.25 44.1834H39.8666V46.0334H39.25V44.1834ZM41.7166 46.0334H41.1V44.1834H41.7166V46.0334ZM41.7166 41.1V42.95H35.55V41.1H41.7166Z" fill="#0EF5FF"/>
</g>
<defs>
<filter id="filter0_d" x="0" y="0" width="97" height="94.5333" filterUnits="userSpaceOnUse" color-interpolation-filters="sRGB">
<feFlood flood-opacity="0" result="BackgroundImageFix"/>
<feColorMatrix in="SourceAlpha" type="matrix" values="0 0 0 0 0 0 0 0 0 0 0 0 0 0 0 0 0 0 127 0"/>
<feOffset/>
<feGaussianBlur stdDeviation="15"/>
<feColorMatrix type="matrix" values="0 0 0 0 0.054902 0 0 0 0 0.960784 0 0 0 0 1 0 0 0 0.8 0"/>
<feBlend mode="normal" in2="BackgroundImageFix" result="effect1_dropShadow"/>
<feBlend mode="normal" in="SourceGraphic" in2="effect1_dropShadow" result="shape"/>
</filter>
</defs>
</svg>

<svg width="97" height="95" viewBox="0 0 97 95" fill="none" xmlns="http://www.w3.org/2000/svg"><g filter="url(#filter0_d)"><path fill-rule="evenodd" clip-rule="evenodd" d="M65.15 59.6h.617c.68 0 1.233.552 1.233 1.233V63.3c0 .681-.552 1.233-1.233 1.233H31.233A1.233 1.233 0 0130 63.3v-2.467c0-.68.552-1.233 1.233-1.233h.617V38.633h-.378a1.233 1.233 0 01-1.171-1.623l2.055-6.167c.169-.504.64-.844 1.172-.843h29.944c.532 0 1.004.339 1.172.843L66.7 37.01a1.234 1.234 0 01-1.172 1.623h-.378V59.6zm-1.678-28.367H33.528L31.473 37.4h34.055l-2.056-6.167zm.445 17.267v-9.867H33.083V48.5h30.834zm0 1.233H33.083V59.6h11.1v-8.017c0-.34.276-.616.617-.616h7.4c.34 0 .617.276.617.616V59.6h11.1v-9.867zm-18.5 9.867h6.166v-7.4h-6.166v7.4zm6.166 1.233h-6.166v.617h6.166v-.617zm-7.4 0h-12.95V63.3h12.95v-2.467zm7.4 1.85h-6.166v.617h6.166v-.617zm1.234.617h12.95v-2.467h-12.95V63.3zm1.85-16.033h7.4c.34 0 .616-.276.616-.617v-6.167a.617.617 0 00-.616-.616h-7.4a.617.617 0 00-.617.616v6.167c0 .34.276.617.617.617zm.616-3.084h.617v1.85h-.617v-1.85zm1.85 0h.617v1.85h-.617v-1.85zm1.85 0h.617v1.85h-.617v-1.85zm2.467 1.85h-.617v-1.85h.617v1.85zm0-4.933v1.85h-6.167V41.1h6.167zm-26.517 9.867h7.4c.34 0 .617.276.617.616v6.167c0 .34-.276.617-.617.617h-7.4a.617.617 0 01-.616-.617v-6.167c0-.34.276-.616.616-.616zm6.784 3.083V52.2H35.55v1.85h6.167zm-5.55 1.233h-.617v1.85h.617v-1.85zm1.85 0H37.4v1.85h.617v-1.85zm1.85 0h-.617v1.85h.617v-1.85zm1.233 1.85h.617v-1.85H41.1v1.85zm20.967 1.234h-7.4a.617.617 0 01-.617-.617v-6.167c0-.34.276-.616.617-.616h7.4c.34 0 .616.276.616.616v6.167c0 .34-.276.617-.616.617zM55.9 55.283h-.617v1.85h.617v-1.85zm1.85 0h-.617v1.85h.617v-1.85zm1.85 0h-.617v1.85h.617v-1.85zm1.233 1.85h.617v-1.85h-.617v1.85zm.617-3.083V52.2h-6.167v1.85h6.167zm-9.25-6.783h-7.4a.617.617 0 01-.617-.617v-6.167c0-.34.276-.616.617-.616h7.4c.34 0 .617.276.617.616v6.167c0 .34-.276.617-.617.617zm-6.167-3.084h-.616v1.85h.616v-1.85zm1.85 0h-.616v1.85h.616v-1.85zm1.85 0h-.616v1.85h.616v-1.85zm1.234 1.85h.616v-1.85h-.616v1.85zm.616-3.083V41.1h-6.166v1.85h6.166zm-16.65 4.317h7.4c.34 0 .617-.276.617-.617v-6.167a.617.617 0 00-.617-.616h-7.4a.617.617 0 00-.616.616v6.167c0 .34.276.617.616.617zm.617-3.084h.617v1.85h-.617v-1.85zm1.85 0h.617v1.85H37.4v-1.85zm1.85 0h.617v1.85h-.617v-1.85zm2.467 1.85H41.1v-1.85h.617v1.85zm0-4.933v1.85H35.55V41.1h6.167z" fill="#0EF5FF"/></g><defs><filter id="filter0_d" x="0" y="0" width="97" height="94.533" filterUnits="userSpaceOnUse" color-interpolation-filters="sRGB"><feFlood flood-opacity="0" result="BackgroundImageFix"/><feColorMatrix in="SourceAlpha" values="0 0 0 0 0 0 0 0 0 0 0 0 0 0 0 0 0 0 127 0"/><feOffset/><feGaussianBlur stdDeviation="15"/><feColorMatrix values="0 0 0 0 0.054902 0 0 0 0 0.960784 0 0 0 0 1 0 0 0 0.8 0"/><feBlend in2="BackgroundImageFix" result="effect1_dropShadow"/><feBlend in="SourceGraphic" in2="effect1_dropShadow" result="shape"/></filter></defs></svg>
